icons/mobile/24/svg/debug-drawer-24.svg

<!-- This Source Code Form is subject to the terms of the Mozilla Public
   - License, v. 2.0. If a copy of the MPL was not distributed with this
   - file, You can obtain one at http://mozilla.org/MPL/2.0/. -->
<svg width="24" height="24" viewBox="0 0 24 24" fill="none" xmlns="http://www.w3.org/2000/svg">
    <path d="M15.4841 2.00049L14.1088 4.38248C13.4525 4.13537 12.7418 4.00013 12 4.00013C11.2581 4.00013 10.5474 4.13539 9.89099 4.38254L8.51574 2.00062L7.00024 2.87562L8.36089 5.23227C7.33553 6.01668 6.56964 7.1239 6.21626 8.4009L4.75 7.50839V4.00013H3V8.00013C3 8.3055 3.1592 8.58878 3.42005 8.74756L6 10.318V15.6822L3.42005 17.2526C3.1592 17.4114 3 17.6946 3 18V22H4.75V18.4917L6.21623 17.5993C6.91766 20.1342 9.24457 22.0001 12 22.0001C14.7555 22.0001 17.0824 20.1342 17.7838 17.5992L19.2501 18.4917V22H21.0001V18C21.0001 17.6946 20.8409 17.4114 20.5801 17.2526L18 15.6821V10.318L20.5801 8.74756C20.8409 8.58878 21.0001 8.3055 21.0001 8.00013V4.00013H19.2501V7.50839L17.7838 8.40096C17.4304 7.12388 16.6644 6.0166 15.639 5.23216L16.9996 2.87549L15.4841 2.00049Z" fill="black" />
    <path d="M15.05 12.9138C14.89 12.6548 14.463 12.6548 14.302 12.9148C14.129 13.1948 13.919 13.4538 13.679 13.6848C13.461 11.8868 12.212 10.3428 10.435 9.74184C10.279 9.68884 10.105 9.72884 9.98702 9.84384C9.87002 9.95784 9.82602 10.1298 9.87502 10.2878C10.267 11.5418 9.97802 12.9178 9.12202 13.9158C9.10702 13.9298 9.09202 13.9438 9.07802 13.9598C9.06302 13.9778 9.04802 13.9958 9.03202 14.0138L9.00502 14.0458C8.99702 14.0558 8.98802 14.0668 8.98102 14.0768C8.53502 14.6448 8.29302 15.3208 8.24902 16.0018C8.25202 18.0728 9.93002 19.7498 12 19.7498C14.071 19.7498 15.75 18.0708 15.75 15.9998V15.3758C15.75 14.5058 15.508 13.6538 15.05 12.9138Z" fill="white" />
</svg>

<!-- This Source Code Form is subject to the terms of the Mozilla Public
   - License, v. 2.0. If a copy of the MPL was not distributed with this
   - file, You can obtain one at http://mozilla.org/MPL/2.0/. -->
<svg xmlns="http://www.w3.org/2000/svg" width="24" height="24" fill="none" viewBox="0 0 24 24">
    <path fill="#000" d="M15.484 2 14.11 4.382A6 6 0 0 0 12 4c-.742 0-1.453.135-2.109.383L8.516 2 7 2.876l1.36 2.356a6 6 0 0 0-2.144 3.169L4.75 7.508V4H3v4c0 .306.16.589.42.748L6 10.318v5.364l-2.58 1.57A.88.88 0 0 0 3 18v4h1.75v-3.508l1.466-.893A6.01 6.01 0 0 0 12 22a6.01 6.01 0 0 0 5.784-4.4l1.466.892V22H21v-4a.88.88 0 0 0-.42-.747L18 15.683v-5.365l2.58-1.57A.88.88 0 0 0 21 8V4h-1.75v3.508l-1.466.893a6 6 0 0 0-2.145-3.169l1.36-2.357z" />
    <path fill="#fff" d="M15.05 12.914c-.16-.26-.587-.26-.748 0a4 4 0 0 1-.623.77c-.218-1.797-1.467-3.341-3.244-3.942a.44.44 0 0 0-.56.546 3.83 3.83 0 0 1-.753 3.628q-.023.02-.044.044l-.046.054-.027.032-.024.03a3.48 3.48 0 0 0-.732 1.926A3.75 3.75 0 0 0 15.75 16v-.624c0-.87-.242-1.722-.7-2.462" />
</svg>
